!!! OTL: Berkowitz522
!!! Chapter: 1
!!! Section: IV
!!! Page: 131
!!! Mode: 
!!! Encoder: DJB
**kern
*staff1
*I"Piano
=1-
*clefG2
*k[]
*C:
*M3/8
16c/LK
8G/
16c/K
8a/J
=2
*M4/8
16g/LK
8e/
16g/K
8dd/
8cc/J
=3
*M3/8
16b/LK
8cc/
16dd/K
8f/J
=4
*M5/8
16e/LK
8c/
16e/K
8a/J
8f#/L
8g/J
=5
*M3/8
16d/LK
8A/
16d/K
8b-/J
=6
*M4/8
16a\LK
8f\
16a\K
8ee\
8dd\J
=7
8cc/L
16g#/L
[16a/
16a/]
16e/J
8f/J
=8
!!linebreak:original
*M3/8
16d#/LK
8e/
16g/K
8c/J
==
*-
